X:56
T:Jigging the Donkey
R:Reel
S:Seamus Quinn, Fermanagh (fiddle)
D:Tape of recital, Irvingstown, Fermanagh 1993
N:As played
Z:Bernie Stocks
M:4/4
K:G
DG(3.G.G.G DGBG | DGBG AGFE | DG(3.G.G.G G2ge | dBAc BG+B2G2+ :|
Bd(3.d.d.d efg2 | Bd(3.d.d.d dBA2 | Bd(3.d.d.d efge | dBAc BG+B2G2+ |
Bd(3.d.d.d efg2 | Bd(3.d.d.d dBA2 | c2Bc Agfg | ecAc BGG2 ||
<end>
<start>
